X: 35861
T: Sanctuary, The
R: jig
M: 6/8
K: Amajor
EFA ABc|ecA gaf|ecA ABc|~B3 BAF|
EFA ABc|ecA gaf|ecA ABc|~B3 AAF:|
ecA ~f3|ecA ~f3|ecA ABc|~B3 Baf|
ecA ~f3|ecA ~f3|ecA ABc|BeB Aaf|
ecA ~f3|ecA ~f3|ecA ABc|~B3 BAF|
EFA ABc|ecA ~a2f|ecA ABc|B3 BAF||

